X: 15033
T: George Rowley's
R: hornpipe
M: 4/4
K: Adorian
|:e>d|c>dB>c A>Bc>d|e2 A2 A2 (3fed|c2 B>c A2 (3cBA|B2 G2 G2- G>d|
(3cdc B>c A2- A>B|c>Bc>d e2- e>f|g>fg>e a>ge>d|c2 A2 A2:|
|:z>e|(3aba (3efg a>ge>d|c2 A2 A2- A>e|g>fg>a g>ed>c|B2 G2 G2 (3efg|
a>ge>g a>ge>d|c>Bc>d e2- e>f|g2 (3gfe a<ge>d|c2 A2 A2:|

